cssgg/format-underline.svg

<svg
  width="24"
  height="24"
  viewBox="0 0 24 24"
  fill="none"
  xmlns="http://www.w3.org/2000/svg"
>
  <path
    d="M6 10V4H8V10C8 12.2091 9.79086 14 12 14C14.2091 14 16 12.2091 16 10V4H18V10C18 13.3137 15.3137 16 12 16C8.68629 16 6 13.3137 6 10Z"
    fill="currentColor"
  />
  <path
    d="M7 18C6.44772 18 6 18.4477 6 19C6 19.5523 6.44771 20 7 20H17C17.5523 20 18 19.5523 18 19C18 18.4477 17.5523 18 17 18H7Z"
    fill="currentColor"
  />
</svg>

<svg viewBox="0 0 24 24" xmlns="http://www.w3.org/2000/svg"><g><path d="M6 10V4h2v6c0 2.2 1.79 4 4 4 2.2 0 4-1.8 4-4V4h2v6c0 3.31-2.69 6-6 6 -3.32 0-6-2.69-6-6Z"/><path d="M7 18c-.56 0-1 .44-1 1 0 .55.44 1 1 1h10c.55 0 1-.45 1-1 0-.56-.45-1-1-1H7Z"/></g></svg>
